X: 26100
T: McFadden's Own
R: reel
M: 4/4
K: Dmajor
F2 EDEA, A,A,|1 DFAF DFdB|AGFD EFGA|B2 AGFD D2:|2 DFAF G3 B|AGFD EFGA|B2 AGFD D2|
dAFA d2 fe|dAFA BE E2|dAFA dgfe|dABG FD D2|
d2 dc df ed|(3dcB cA BE E2|dcBc dbaf|dBAG FAdA||

